X:5
T:Amis, buvons !
R:
C:
H:
N:La fin de ce morceau dans le disque est basée sur le branle nommé Cassandre d'Arbeau.
D:La Bamboche - Quintessence
O:France
A:
Z: Eric Forgeot - http://anamnese.online.fr -- http://anamnese.fr.st
M:C
L:1/4
Q:1/4=120
K:D 
%%MIDI transpose 0
B B/B/ A>A | A/>B/ A/G/ F2 | B B/B/ A G/F/ | GA B2 |
B/B/ A/B/ d>d | A/A/ G/A/ B2 | B/B/ A/B/ G/>G/ B/B/ | A B E2 |
E/F/ G/E/ B c/e/ | d c B2 ||
W:          Amis buvons, mes chers amis buvons,
W:          Mais n'y perdons jamais la raison,
W:          À force d'y boire on perd la mémoire
W:          On va titubant le soir à tâtons
W:          Et on court les rues à sauts de mouton.
W:
W:J'en ai tant bu de ce bon vin nouveau, 
W:Qu'il m'a troublé l'esprit du cerveau,
W:Avant que je meure, donnez moi sur l'heure,
W:De ce bon vin blanc qui brille dans mon verre,
W:Et qui fait chanter tous les amants sur terre.
W:
W: [refrain]
W:
W:Ah si jamais je vais dedans les cieux,
W:Je m'y battrai avec le bon dieu,
W:A grands coups de lance, tapant sur les anges,
W:Je leur ferai voir, que c'est mon devoir,
W:De boire du vin du matin au soir.
W:
W:Ah si jamais je vais dedans l'enfer,
W:Je m'y battrai avec lucifer
W:A grands coups de sabre, pour tuer le diable
W:Je lui ferai voir, que c'est mon devoir,
W:De boire du vin du matin au soir.

